X:27
T:Shepherd and Shepherdess. JJo8.027, The
%%VWML:JohnsonVol8-2184-p14-0
F:http://www.vwml.org/record/JohnsonVol8/2184/p14
Z:Transcribed by Simon Furey and Lewis Jones
Z:vmp.Simon Wilson 2013 www.village-music-project.org.uk
Z:Dance added by John Chambers 2017
M:2/4
L:1/8
%Q:1/2=70
K:A
|:\
(c/d/e) Aa | f2-fa | e>fec | B/B/B Bc |\
AE- EB/c/ | d2(e/d/c/B/) | (ce)(Bc) | A/A/AA2 :|
|:\
(cA)(dB) | cA-AB | (cA)(ec) | B/B/B Bc |\
AE- EB/c/ | d2(e/d/c/B/) | (ce)(Bc) | A/A/AA2 :|
|:\
(a/g/f/)g/ ab | (ag)(fe) | (c/d/e) (f/g/a) | (AG)(FE) |\
(FD)(dB) | (cA)(dB) | (ce)(Bc) | A/A/AA2 :|
W: Set and hands 3 with the 2d Wo .| set
W:and hands 3 with the 2d Man :| Cross
W:over two Cu. :||. Lead up to the top and
W:cast off :||: hands 4 round at Bottom .:||:
W:Right hands and Left at top .:||:.
W:
T:Scotch Jenny. JJo8.028
B:J.Johnson Choice Collection Vol 8 1758
Z:vmp.Simon Wilson 2013 www.village-music-project.org.uk
Z:Dance added by John Chambers 2017
M:C|
L:1/8
%Q:1/2=80
K:G
|: d |\
(B/c/d) BG gded | gfed Tc3B |\
c/d/e2d cBAG | FAcBA3 :|
|: A |\
F/G/A2B (AF)(dA) | B(G G)A/B/Tc3A |\
(B/c/d) (e/f/g)d2(cB) | (cA)(dB)G3 :|
W: Lead thro' the 2d and 3d Cu.
W:the 2d Cu. follow .| Cast up and
W:hands 4 round at top :|| Cross
W:over and turn :||. Right hands
W:and Left foot it at both Corners
W:and turn :| Lead out on
W:both Sides and turn :||:
W:
